X: 23806
T: Little Judique
R: jig
M: 6/8
K: Gmajor
A|:GGG BAB|GBd gba|Tg2d ege|dBG A2B|
GGG BAB|GBd gba|g2d ege|dBG G2A:|
|:B2GTB2d|BAB d2 B|A2G EFG|DB,G,A,2A|1
B2GB2d|BAB d2 B|A2G EFG|DB,G,G,2A:|2
GGG BAB|GBd gba|Tg2d ege|dBG G2A||

